X: 10232
Q: "Slow"
M: C
L: 1/8
K: Em
E2B>c B2A>B | cBAG F2G>F |\
E2e>f g2fe | ^defd B2AB |\
cBAG F2G>A | BGFE {e}d2e>f |
g>ef>^d e>BA>B | G2TF>E E2 :|\
|: B2 |\
e2e>f g2f>e | b>aga {g}f2e^d |\
eBef g2fe |
b>a g/b/a/g/ {g}Hf2 A>B |\
c>BAG F2G>A | BGFE e>^d e>f |\
g>e f>^d e>B AB | {A}G2TF>E E2 :|


